X:514
T:Reel 514
M:4/4
K:Dmaj
L:1/8
dB|A>D (3DDD AGFG|A>D (3DDD D2AF|G>E (3EEE BEGE|GABd cdBd|A>D (3DDD DGFD|A>D (3DDD d2cd|e>E (3cBc GcEc|BDEG D2|FG|ADFD DdFD|A,DFD DDBD|GEEE cEcE|BEeE GEBE|A,DFD A,DFD|A,DAD GABc|dBce dBAG|FDEC D2|
